icon-themes/sifr_svg/cmd/lc_distributeselection.svg

<svg viewBox="0 0 24 24" xmlns="http://www.w3.org/2000/svg"><path d="m3 1v8h2v-1.5625l1.28125 1.28125c.18818.18821.45346.28125.71875.28125h1v-1c.00004-.26531-.09314-.53057-.28125-.71875l-1.28125-1.28125h11.125l-1.28125 1.28125c-.18811.18818-.28129.45344-.28125.71875v1h1c.26529 0 .53057-.09304.71875-.28125l1.28125-1.28125v1.5625h2v-8h-2v1.5625l-1.28125-1.28125c-.18817-.18814-.45344-.28122-.71875-.28125h-1v1c0 .2653.0931.53058.28125.71875l1.28125 1.28125h-11.125l1.28125-1.28125c.18815-.18817.28125-.45345.28125-.71875v-1h-1c-.26531.00003-.53058.09311-.71875.28125l-1.28125 1.28125v-1.5625zm0 10v2h2v-2zm16 0v2h2v-2zm-16 4v4h2v-4zm16 0v4h2v-4zm-16 6v2h2v-2zm16 0v2h2v-2z" fill="#555753"/></svg>

<svg xmlns="http://www.w3.org/2000/svg" viewBox="0 0 24 24">
  <path
     style="fill:#555753"
     d="M 3,1 V 9 H 5 V 7.4375 L 6.28125,8.71875 C 6.46943,8.90696 6.73471,9 7,9 H 8 V 8 C 8.00004,7.73469 7.90686,7.46943 7.71875,7.28125 L 6.4375,6 h 11.125 L 16.28125,7.28125 C 16.09314,7.46943 15.99996,7.73469 16,8 v 1 h 1 c 0.26529,0 0.53057,-0.09304 0.71875,-0.28125 L 19,7.4375 V 9 h 2 V 1 H 19 V 2.5625 L 17.71875,1.28125 C 17.53058,1.09311 17.26531,1.00003 17,1 h -1 v 1 c 0,0.2653 0.0931,0.53058 0.28125,0.71875 L 17.5625,4 H 6.4375 L 7.71875,2.71875 C 7.9069,2.53058 8,2.2653 8,2 V 1 H 7 C 6.73469,1.00003 6.46942,1.09311 6.28125,1.28125 L 5,2.5625 V 1 Z m 0,10 v 2 h 2 v -2 z m 16,0 v 2 h 2 V 11 Z M 3,15 v 4 h 2 v -4 z m 16,0 v 4 h 2 V 15 Z M 3,21 v 2 h 2 v -2 z m 16,0 v 2 h 2 v -2 z"
     />
</svg>
